X:1
T:42
T:42
T:Études enfantines op. 37
T:Henry Lemoine
C:Henry Lemoine
%%score { ( 1 4 ) | ( 2 3 ) }
L:1/8
Q:3/8=75
M:3/8
K:G
V:1 treble nm="Piano" snm="Pno."
V:4 treble 
V:2 bass 
V:3 bass 
V:1
!p!"^Andantino" (!1!!3![GB]/!2!!4![Ac]<!3!!5![Bd][Ac]/ | [GB]/[Ac]<[Bd][Ac]/ | %2
!<(! [GB]/[Ac]/[Bd]/!1!!3![ce]/[df]/!<)![eg]/ |!>(! [df][ce]!2!!4![Bd])!>)! | %4
 ([Ac]/[Bd]<[ce][Bd]/ | [Ac]/[Bd]<[ce][Bd]/- | %6
 [Bd]/)([Ac]/!5!e/!2!!4![Bd]/!1!!3![Ac]/!1!!2![GB]/) | (!1!!4![GB].!2!!3![FA]) z | %8
 (!1!!3![GB]/!2!!4![Ac]<!3!!5![Bd][Ac]/ | [GB]/[Ac]<[Bd][Ac]/ | %10
!<(! [GB]/[Ac]/[Bd]/!1!!3![ce]/[df]/!<)![eg]/ |!>(! [df][ce]!2!!4![Bd])!>)! | %12
 ([Ac]/[Bd]<[ce][Bd]/ | [Ac]/[Bd]<[ce][Bd]/) | %14
 (!2!!4![Bd]/[Ac]/)(!2!!4![Ac]/[GB]/)([GB]/!2!!3![FA]/) | (!>!!2!!4![FA]2 .G/) z/!fine! |] %16
!mf! (!2!!4![FA]/[^E^G]/ [FA]2) | (!1!!3![=GB]/[A^c]/ [Bd]2) | %18
 (!1!!3![A^c]/[Bd]/[ce]/!1!!3![df]/[eg]/[fa]/ | !>![eg]2 .[df]) | %20
!f! ([fa]/[eg]/[df]/!3!!5![^ce]/[Bd]/[Ac]/) | (!2!!4![A^c]/[GB]/(!5!d/)!2![Ac]/[GB]/!2![FA]/) | %22
 (!2![FA]/"_dim."[EG]/B/)(!2![FA]/[EG]/!2![DF]/) | (!>![DF]2 .!2![^CE]) |!p! .a!<(!.a.a | %25
 .a!<)!!>(! z/ (!2!^c/!1!d/f/!>)! |!p! .!5!a)!<(!.a.a | .a!<)!!>(! z/ (!2!^c/!3!d/!1!=c/)!>)! | %28
!mf! (!3!=c/!2!B/).!1!B.B | (B/!2!^d/!4!f/e/g/B/) |!>(! (!3!_B/!2!A/).!1!A!>)!.!2!A | %31
"_cresc." (A/!2!^c/e/d/f/A/) | (!3!A/^G/).!3!G.!2!G |!f! (!1!A>B^c/!1!d/ | e/f/a/g/B/^c/ | %35
 .d) z/!p! d/!tenuto!d/!tenuto!d/ | z z/ d/d/d/ |"_cresc." z z/ d/d/d/ | z"_ritardando" z/ d/d/d/ | %39
 z z/!p! [Ac]/[Ac]/[Ac]/!D.C.! |] %40
V:2
 .!2!G, z/ (!4!D,/E,/F,/ | .G,) z/ (D,/E,/F,/ | .G,) z (!^!!4!B,, | C,/D,/E,/F,/!4!G,/^G,/ | %4
 .A,) z/ (E,/!4!F,/^G,/ | .A,) z/ (E,/F,/^G,/ | .A,) z/ (!4!B,/C/^C/ | D/^C/D/=C/B,/A,/ | %8
 .G,) z/ (!4!D,/E,/F,/ | .G,) z/ (D,/E,/F,/ | .G,) z (!^!!4!B,, | C,/D,/E,/F,/!4!G,/^G,/ | %12
 .A,) z/ (E,/!4!F,/^G,/ | .A,) z/ (!4!E,/F,/^G,/ | .A,).D.D, | (!>![D,C]2 .[G,B,]/) z/ |] %16
 !3!D,>(D,^C,/D,/ | !1!G,>)(!4!F,G,/^G,/ | A,3) | z/ (!4!A,/B,/^C/.D) | .D, z z | .G, z z | %22
 z (!3!G,>^G, | A,/^G,/A,/G,/.A,) |[K:treble] (!5!!3![A,^C]/[B,D]/[CE]/[A,C]/[B,D]/[CE]/ | %25
 !5!!3![DF]/[EG]/[FA]/[EG]/!5![DF]/) z/ | (!5!!3![A,^C]/[B,D]/[CE]/[A,C]/[B,D]/[CE]/ | %27
 !5!!3![DF]/[EG]/[FA]/[EG]/!5![DF]/) z/ | z (!5!!3![^DF]/A/[DF]/A/ | !2!!4![EG]2) z | %30
 z (!5!!3![^CE]/G/[CE]/G/ | !2!!4![DF]2) z | z !4!!2![B,D]/=F/[B,D]/F/ | (A,/(!2!D/ [D^F]2) | %34
 [A,^CG]2) ([A,EG] | [DF]) z z |[K:bass] z !^!D2 | z !^!D2 | z !^!D2 | z !^!!fermata!D2 |] %40
V:3
 x3 | x3 | x3 | x3 | x3 | x3 | x3 | x3 | x3 | x3 | x3 | x3 | x3 | x3 | x3 | x3 |] x3 | x3 | x3 | %19
 x3 | x3 | x3 | x3 | x3 |[K:treble] x3 | x3 | x3 | x3 | x3 | x3 | x3 | x3 | x3 | !5!A,3 | x3 | x3 | %36
[K:bass] !5!D,3 | !4-5!E,3 | !4!^E,3 | !3!F,3 |] %40
V:4
 x3 | x3 | x3 | x3 | x3 | x3 | x3 | x3 | x3 | x3 | x3 | x3 | x3 | x3 | x3 | x3 |] x3 | x3 | x3 | %19
 x3 | x3 | x3 | x3 | x3 | x3 | x3 | x3 | x3 | x3 | x3 | x3 | x3 | x3 | x3 | x3 | x3 | !^!F3 | %37
 !^!G3 | !^!^G3 | !^!!fermata!A3 |] %40

